X:1
T:Di piant' in pianto
T:Di piant' in pianto
T:Girolamo Scotto
T:Source : Secondo Libro delle Muse a tre voci---Venetia---G.Scotto---1562. Editor : André Vierendeels (27/05/16).
T:Notes : Original clefs : C3, C4, F4 Editoriel accidentals above the staff Original note values have been halved Square brackets indicate ligatures m 49 in T, first 'F" notated as "E" in original print "Terzi toni" 
T:©
T:©
T:©
T:©
T:©
T:©
C:Girolamo Scotto
Z:©
%%score [ 1 2 3 ]
L:1/8
Q:1/4=99
M:2/2
K:F
V:1 treble-8 nm="Tenor 1" snm="T 1"
V:2 treble-8 nm="Tenor 2" snm="T 2"
V:3 bass nm="Bass" snm="B"
V:1
 d4 d4- | d2 d2 B3 c | de f3 e d2- | dc/B/ c2 d4 | z2 d2 d2 e2 | f2 d3 cBA | B2 A4 G2 | %7
w: Di piant'|_ in pian- *||* * * * to,|et d'u- na|in al- * * *|tra do- glia|
 A2 c2 B2 F2 | GABc de f2- | fe d4 c2 | d2 f4 e2 | d2 c2 B2 B2 | A2 B4 B2 |"^#" AG G4 F2 | %14
w: mi gui- d'a- mo-|||re, e'l de-|sti- no as- pro|e fe- *||
 G2 B2 A2 d2 | d2 d2 c2 c2 | d2 d2 G2 A2 | B2 A4 G2 | A2 c2 c2 c2 | d4 _e3 d |"^b" c2 B2 e2 d2- | %21
w: ro, ond' io ond'|io cer- co so-|ven- te col pen-|sie- * *|ro, ne pe- ro|tro- vo _|_ chi da lui|
 d2 c2 d4 | d3 c BA G2 | A4 B4 | A8 || d4 d2 d2 | d4 d2 f2 | e2 f2 d4 | f4 c3 d | ef g3 f/e/ f2 | %30
w: _ mi suo-|||glia.|Ma- donn' e|se- co et|fa tut- ta|sua vo- *||
"^b" g3 f e2 d2 | c2 A2 B2 d2- | dc c4 B2 | c2 z G AA B2 | G2 g2 gg f2- | fe/d/ e2 f2 c2 | %36
w: * gli- a, et|ev- vi an- cho|_ il cor mi-|o prest' et leg- gie-|ro, prest' et leg- gie-|* * * ro, a dar-|
 c2 c2 d2 e2 | f2 ed c2 A2 | B2 A4 G2 | A4 z2 f2 | e2 d2 c2 A2 | B2 d4 c2- | c2 B4 A2- | %43
w: mi'an- go- scia et|han _ _ _ chtus'|il sen- tie-|ro a|co- le- i, che|d'as- prez- z'i|_ co- ri|
 AG G2 A2 c2 | B2 A2 B4 | A4 z2 G2 | G2 F2 B4 | A2 d4 c2 | d2 B2 A2 A2 | B4 A4 | A8 | A8 |] %52
w: _ _ spo- glia, i|co- ri spo-|glia, a|co- lei che|d'as- prez- *|ze, i co- ri|spo- *|gli-|a|
V:2
 B4 A4- | A2 B2 G4 | A3 G F2 G2 | E4 D2 G2 | A2 A2 B2 G2 | A2 B4 F2 | G2 F4 ED | E2 F2 D4 | %8
w: Di piant'|_ in pian-||* to, et|d'u- na in al-|tra do- glia,|do- * * *|* * glia|
 z2 G2 F2 F2 | B3 A G4 | A2 d4 c2 | B2 A3 G G2- | GF FE/F/ G4 | z8 | z2 D2 D2 D2 | G3 F E2 F2- | %16
w: mi guid' a-|mo- * *|re, e'l de-|stin' as- pro e|_ _ fe- * * ro,||ond' io cer-|co so- ven- *|
 F2 ED E2 F2 | D2 F4 D2 | E2 A2 A2 A2 | B3 A G4- | G2 G2 c2 BA | GF G2 A2 B2- | B2 A2 G2 G2- | %23
w: * * * te col|pen- sie- *|ro, ne pe- ro|tro _ chi|_ da lui mi _|_ _ _ _ _|* * * suo-|
 G2 F2 G4 | ^F8 || A4 A2 A2 | B4 A2 d2 | c2 A2 B2 B2 | A4 A3 B | c3 B A4 | G4 z2 G2- | %31
w: |glia.|Ma- donn' e|se- co et|fa tut- ta su-|a vo- *||glia, et|
 G2 F2 G2 D2 | E2 F2 D4 | C2 z E FF D2 | E3 F G2 A2 | G4 A2 A2 | A2 G2 B2 A2- | A2 G2 AGFE | %38
w: _ ev- vi an-|cho il cor|mio prest' et leg- gie-|ro, prest' et leg-|gie- ro, a|dar- mi'an- go scia|_ et han _ _ _|
 DE F4 ED | E2 F2 DEFG | AG G4 F2 | G4 z4 | z8 | z2 E2 E2 E2 | F2 F2 D2 G2- | GF/E/ F2 G2 B2 | %46
w: chtus' il sen- * *||* * tie- *|ro||a co- lei,|che d'as- prez- z'i|_ _ _ co- ri spo-|
 A4 G2 D2 | D2 F2 E4 | F2 G3 F/E/ F2 | G2 D2 F4- | F2 E2 F4 | E8 |] %52
w: gli- a, i|co- ri spo-|* * * * gli-|a, i co-|* ri spo-|glia.|
V:3
 G,,4 D,4- |"^b" D,2 B,,2 E,4 | D,4 z2 G,,2 | A,,2 A,,2 B,,2 G,,2 | D,3 C, B,,2 C,2 | %5
w: Di piant'|_ in pian-|to, et|d'u- na'in al- tra|do- * * *|
 F,,2 G,,A,, B,,C, D,2 | G,,2 A,,2 B,,4 | A,,2 F,,2 G,,2 B,,2 | G,,3 A,, B,,4 |"^b" z2 D,2 E,4 | %10
w: glia _ _ _ _ _|_ _ _|* mi guid' a-|mo- * re,|A- mo-|
 D,4 z4 | z4 G,,4 | D,2 D,2 E,3 D, | C,2 B,,2 A,,4 | G,,4 z2 G,,2 | G,,2 G,,2 C,2 A,,2 | %16
w: re|e'l|de- stin' as- *|pro e fe-|ro, ond'|io cer- co so-|
 B,,2 B,,2 C,2 F,,2 | G,,2 A,,2 B,,4 | A,,2 F,,2 F,,2 F,,2 | B,,2 G,,2 C,4- |"^b" C,2 E,2 C,2 D,2 | %21
w: ven- te col pen-|sie- * *|ro, ne pe- ro|tro- vo chi|_ da lui mi|
"^b" E,4 D,4 |"^b" G,,2 D,2 E,4 | D,4 G,,4 | D,8 || D,4 D,2 D,2 | G,4 D,2 D,2 | A,2 F,2 G,2 G,2 | %28
w: suo- *|glia, mi suo-||glia.|Ma- donn' e|se- co et|fa tut- ta sua|
"^-natural" D,3 E, F,4 | C,4 D,2 D,2 | _E,3 D, C,2 B,,2 | A,,4 G,,2 B,,2 | A,,2 F,,2 G,,4 | %33
w: vo- * glia,|et ev- vi|an- ch'il _ cor|mi- o prest'|et leg- gie-|
 C,2 z C, F,,F,, G,,2 | C,3 C, C,2 F,,2 | C,4 F,,2 F,2 | F,2 E,2 D,2 C,2 | B,,4 A,,2 D,2 | %38
w: ro, prest' et leg- gie-|ro, prest' et leg-|gie- ro, a|dar- mi'an- go- scia|et han chtus'|
 G,,2 A,,2 B,,4 | A,,2 F,,2 B,,4 | C,2 G,,2 A,,2 A,,2 | G,,A,,B,,C, D,E,F,E,/D,/ | %42
w: il sen- tie-|ro'a co- le-|i, che d'as- prez-|ze- * * * * * * * *|
 E,F, G,2 D,3 C, | B,,2 C,2 A,,4 | D,2 D,2 G,,A,,B,,C, | D,2 D,2 G,,4 | D,4 z4 | z2 D,2 A,,2 A,,2 | %48
w: * * * i co-|ri spo- gli-|a, i co- * * *|ri spo- gli-|a,|i co- ri|
"^b" D,2 E,2 D,4 | G,,4 D,4 | D,2 C,2 D,4 | A,,8 |] %52
w: spo- * gli-|a, i|co- ri spo-|glia.|

